X: 24
T: Success to the Fleet
B: London Magazine 1756, p.189
B: Kate Van Winkle Keller & George A. Fogg, "Contra Dances of New Hampshire 1783" p.24
R: jig
Z: 2012 John Chambers <jc:trillian.mit.edu>
N: Also in G major (Whittier Perkins, 1790)
M: 6/8
L: 1/8
P: AAB, 24 bars, 8,8,8
K: Gm
"A"[|] D |\
"Gm"GBd dBG | "Gm"g^fg dBG | "Cm"cde edc | "Gm"Bcd BAG |\
"Gm"GBd dBG | "Gm"g^fg dBG | "Cm"cde/c/ "Gm"dBG | "D"A^FD "Gm"G2 :|
"B"[|] G |\
"Gm"BcB gdB | "Dm"afd "Bb"fdB | "Cm"cdc gec | "F"ABc "D"A^FD |\
"Gm"GBd dBG | "Gm"g^fg "Cm"cde | "Gm"dBd dBd | "D"A^FD "Gm"G2 |]
